X:1
T:Anerley, 10.9.10.9 D
T:Anerley, 10.9.10.9 D
T:George W. Bacon, 1915
T:Public Domain Courtesy of the Cyber Hymnal™
C:George W. Bacon, 1915
Z:Public Domain
Z:Courtesy of the Cyber Hymnal™
%%score ( 1 2 ) ( 3 4 )
L:1/8
Q:1/4=100
M:4/4
K:Bb
V:1 treble 
V:2 treble 
V:3 treble 
V:4 treble 
V:1
"^Female Voices" [DF][EG] | [FB]2 [GB]2 [FB]2 B[Ac] | [Bd]2 [Bd]2 [Bd]2 [DF][EG] | %3
 [FB]3 [Bd] [Ac]B[Gc][Bd] | [Ac]6 [Bd][Be] | [Bf]2 [Bf]2 [Bd]2 [Fd][Fc] | [GB]2 G2 [GB]2 [GB][Fc] | %7
 [Bd]3 [Bd] [Bd][ce][Bd][Ac] | [FB]6 [Bd][Bd] | c6 [ce][ce] | d6 [Bd][Be] | %11
 [Bf]3 [Bd] [Bd]B[Gc][Bd] | [Ac]6 [Ad][Ac] | B6 [EG][FB] | F6 [DF][EG] | %15
 [FB]3 [Bf] [Be][ce][Bd][Ac] | [FB]6 |] %17
V:2
 x2 | x6 B x | x8 | x5 B x2 | x8 | x8 | x2 G2 x4 | x8 | x8 | A2 A2 A2 x2 | B2 B2 B2 x2 | x5 B x2 | %12
 x8 | F2 F2 F2 x2 | D2 D2 D2 x2 | x8 | x6 |] %17
V:3
 [B,F][B,E] | [B,D]2 [B,E]2 [B,D]2 [DF][CF] | [B,F]2 [B,G]2 [B,F]2 [B,F][B,E] | %3
 [B,D]3 [B,F] [CF][DF][C=E][CE] | F6 [B,F][CF] | [DF]2 [DF]2 [B,F]2 B,[A,C] | %6
 [G,D]2 [B,D]2 [G,D]2 [G,D][A,C] | [B,F]3 [B,F] [B,F][EG]F[F,E] | [B,D]6 [B,F][B,F] | F2 F2 F2 FF | %10
 [B,F]2 [B,F]2 [B,F]2 [B,F][CF] | [DF]3 [B,F] [B,F][DF][C=E][CE] | F6 F[EF] | %13
 [B,D]2 [B,D]2 [B,D]2 [B,E][B,D] | [B,D]2 [B,D]2 [B,D]2 [B,F][B,E] | [B,D]3 [DF] [EG][CG]F[F,E] | %16
 [B,D]6 |] %17
V:4
 x2 | x8 | x8 | x8 | F6 x2 | x6 B, x | x8 | x6 F x | x8 | F2 F2 F2 FF | x8 | x8 | F6 F x | x8 | %14
 x8 | x6 F x | x6 |] %17

